images/insta_icon.svg

<svg width="16" height="16" viewBox="0 0 16 16" fill="none" xmlns="http://www.w3.org/2000/svg">
<path d="M12.2346 2.86328C11.7145 2.86328 11.2969 3.28086 11.2969 3.80101C11.2969 4.32115 11.7145 4.73874 12.2346 4.73874C12.7547 4.73874 13.1723 4.32115 13.1723 3.80101C13.1723 3.28086 12.7547 2.86328 12.2346 2.86328Z" fill="#3B3B3B"/>
<path d="M8.06589 4.06641C5.8974 4.06641 4.13184 5.83197 4.13184 8.00047C4.13184 10.169 5.8974 11.9345 8.06589 11.9345C10.2344 11.9345 11.9999 10.169 11.9999 8.00047C12.0073 5.83197 10.2417 4.06641 8.06589 4.06641ZM8.06589 10.528C6.67395 10.528 5.54575 9.39975 5.54575 8.00781C5.54575 6.61586 6.67395 5.48765 8.06589 5.48765C9.45783 5.48765 10.586 6.61586 10.586 8.00781C10.586 9.39975 9.45783 10.528 8.06589 10.528Z" fill="#3B3B3B"/>
<path d="M11.1941 16H4.80586C2.15384 16 0 13.8462 0 11.1942V4.80587C0 2.15385 2.15384 0 4.80586 0H11.1941C13.8462 0 16 2.15385 16 4.80587V11.1942C16 13.8462 13.8388 16 11.1941 16ZM4.81319 1.51647C2.99634 1.51647 1.51649 2.99633 1.51649 4.81318V11.2015C1.51649 13.0183 2.99634 14.4982 4.81319 14.4982H11.2015C13.0183 14.4982 14.4982 13.0183 14.4982 11.2015V4.81318C14.4982 2.99633 13.0183 1.51647 11.2015 1.51647H4.81319Z" fill="#3B3B3B"/>
</svg>

<svg width="16" height="16" fill="none" xmlns="http://www.w3.org/2000/svg"><path d="M12.235 2.863a.935.935 0 00-.938.938c0 .52.417.938.938.938.52 0 .937-.418.937-.938a.935.935 0 00-.937-.938zM8.066 4.066A3.94 3.94 0 004.132 8a3.94 3.94 0 003.934 3.934A3.94 3.94 0 0012 8a3.93 3.93 0 00-3.934-3.934zm0 6.462a2.52 2.52 0 110-5.04 2.52 2.52 0 010 5.04z" fill="#3B3B3B"/><path d="M11.194 16H4.806A4.809 4.809 0 010 11.194V4.806A4.809 4.809 0 014.806 0h6.388A4.809 4.809 0 0116 4.806v6.388A4.813 4.813 0 0111.194 16zM4.814 1.516a3.302 3.302 0 00-3.298 3.297v6.388a3.302 3.302 0 003.297 3.297h6.388a3.302 3.302 0 003.297-3.296v-6.39a3.302 3.302 0 00-3.296-3.297h-6.39z" fill="#3B3B3B"/></svg>
